dist/svgs/unicons/line/sliders-v-alt.svg

<svg xmlns="http://www.w3.org/2000/svg" viewBox="0 0 24 24"><path d="M20 8.18V3a1 1 0 00-2 0v5.18a3 3 0 000 5.64V21a1 1 0 002 0v-7.18a3 3 0 000-5.64zM19 12a1 1 0 111-1 1 1 0 01-1 1zm-6 2.18V3a1 1 0 00-2 0v11.18a3 3 0 000 5.64V21a1 1 0 002 0v-1.18a3 3 0 000-5.64zM12 18a1 1 0 111-1 1 1 0 01-1 1zM6 6.18V3a1 1 0 00-2 0v3.18a3 3 0 000 5.64V21a1 1 0 002 0v-9.18a3 3 0 000-5.64zM5 10a1 1 0 111-1 1 1 0 01-1 1z"/></svg>

<svg xmlns="http://www.w3.org/2000/svg" viewBox="0 0 24 24"><path d="M20,8.18V3a1,1,0,0,0-2,0V8.18a3,3,0,0,0,0,5.64V21a1,1,0,0,0,2,0V13.82a3,3,0,0,0,0-5.64ZM19,12a1,1,0,1,1,1-1A1,1,0,0,1,19,12Zm-6,2.18V3a1,1,0,0,0-2,0V14.18a3,3,0,0,0,0,5.64V21a1,1,0,0,0,2,0V19.82a3,3,0,0,0,0-5.64ZM12,18a1,1,0,1,1,1-1A1,1,0,0,1,12,18ZM6,6.18V3A1,1,0,0,0,4,3V6.18a3,3,0,0,0,0,5.64V21a1,1,0,0,0,2,0V11.82A3,3,0,0,0,6,6.18ZM5,10A1,1,0,1,1,6,9,1,1,0,0,1,5,10Z"/></svg>
